X: 72
T: Lupang de yushu
L: 1/8
M: 2/4
K: E
c2c2 [I:setbarnb 1]| 
c BG2 | 
f ec2 | 
B GF2 | 
G> B c e | 
B G E F | 
G4- | 
G4 | 
f ec2 | 
c2F2 | 
c BG2 | 
G EC2 | 
C> E F G | 
G F E B, | 
C4- | 
C4 |]

@@@ Tune index: 8740
